X:47
T:T029C- The Short Apron
S:Oswald's CPC, bk 10, (c 1760)
Q:1/4=120
L:1/4
M:3/4
K:Em
g3/4e/4|{e/}dBB|B2g3/4e/4|{e/}dAA|A2(B/c/)|d(c/B/)(A/G/)|\
g3a/b2|(Be)~^d|e2::(d/c/)|(B/c/)de|(d/B/)(d/B/)(A/G/)|\
(A/B/)d(d/e/)|d2c|cef|g2a|b(a/g/)(f/e/)|B2b|(c'a)f|\
(bg)e|af/f/g/e/|{e/}^d3/2c/ (B/A/)|Ggf|b(a/g/)(f/e/)|(Be)~^d|\
e2:|]

